X:264
T:Reel 264
M:4/4
K:Gmaj
L:1/8
 (3ddB |c>A (3AGA c>B (3BAG |A>BAG GAc>A (3AGA |G>A (3BAB c>B (3BAG |A>D (3DDD A2Bc||c>A (3AGA B>A (3AGA |GEDE G2|:fg|e>A (3AGA e>A (3AAA |eaag fgag|fgag fgfgdB|G>B (3AFG A2:||2D2AG AGAc|BcAB G2:|
